eelo/core/img/filetypes/folder-external.svg

<?xml version="1.0" encoding="UTF-8" standalone="no"?>
<svg
   width="14"
   height="14"
   viewBox="0 0 14 14"
   fill="none"
   version="1.1"
   id="svg6"
   sodipodi:docname="folder-external.svg"
   inkscape:version="1.1 (c68e22c387, 2021-05-23)"
   xmlns:inkscape="http://www.inkscape.org/namespaces/inkscape"
   xmlns:sodipodi="http://sodipodi.sourceforge.net/DTD/sodipodi-0.dtd"
   xmlns="http://www.w3.org/2000/svg"
   xmlns:svg="http://www.w3.org/2000/svg">
  <defs
     id="defs10" />
  <sodipodi:namedview
     id="namedview8"
     pagecolor="#505050"
     bordercolor="#ffffff"
     borderopacity="1"
     inkscape:pageshadow="0"
     inkscape:pageopacity="0"
     inkscape:pagecheckerboard="1"
     showgrid="false"
     inkscape:zoom="31.636364"
     inkscape:cx="1.7701149"
     inkscape:cy="7.6652298"
     inkscape:window-width="1920"
     inkscape:window-height="1017"
     inkscape:window-x="-8"
     inkscape:window-y="-8"
     inkscape:window-maximized="1"
     inkscape:current-layer="svg6" />
  <g
     id="g14"
     transform="matrix(0.86875124,0,0,0.86875124,0.64349045,2.1674218)">
    <path
       d="m 1.48678,0.175667 c -0.595842,0 -1.097102,0.480322 -1.075752,1.075753 l 0.27178,8.62303 c 0.0212,0.59545 0.479962,1.07525 1.075722,1.07525 h 2.09188 8.58819 c 0.5958,0 1.002,-0.4839 1.0752,-1.07525 L 14.2233,4.14626 C 14.0261,3.91931 13.7151,3.78488 13.2773,3.75372 H 2.50238 c -0.1484,0 -0.29064,0.0601 -0.42384,0.16347 C 1.94538,4.02062 1.8215,4.16755 1.70987,4.34004 1.48662,4.68502 1.31244,6.14225 1.21344,6.55727 V 2.85386 C 1.21644,2.72715 1.29734,2.59127 1.40478,2.48716 1.5122,2.38306 1.64677,2.31077 1.7571,2.31077 H 13.3439 C 13.03,1.79302 12.6702,1.43278 12.0376,1.43278 H 5.1915 L 5.1975,1.25142 C 5.2025,1.10256 5.175,0.960794 5.1219,0.832054 5.0687,0.703314 4.98943,0.587414 4.89087,0.490204 4.79237,0.393004 4.67447,0.314449 4.54405,0.260139 4.41364,0.205839 4.27066,0.175644 4.1217,0.175644 Z"
       fill="#007fff"
       id="path2" />
    <path
       d="m 9.58683,4.83664 -1.5353,0.0094 c -0.07535,0 -0.13186,0.05651 -0.13186,0.13187 v 0.31082 c 0,0.07535 0.05651,0.14129 0.13186,0.14129 L 8.74854,5.40176 8.76738,5.42059 6.13948,8.04849 C 6.12064,8.06733 6.1018,8.09558 6.1018,8.12384 c 0,0.03768 0.01884,0.06593 0.03768,0.08477 l 0.21664,0.21664 c 0.01884,0.01884 0.04709,0.03768 0.08477,0.03768 0.02826,0 0.05651,-0.01884 0.07535,-0.03768 L 9.14414,5.79735 9.16297,5.81619 9.13472,6.5132 c 0,0.07535 0.06593,0.14128 0.14128,0.14128 v -0.0094 h 0.31083 c 0.07535,0 0.13187,-0.05651 0.13187,-0.13187 L 9.72812,4.97792 c 0,-0.07535 -0.06594,-0.14128 -0.14129,-0.14128 z M 8.9746,7.54931 H 8.82389 c -0.08477,0 -0.1507,0.07535 -0.1507,0.1507 v 1.45053 c 0,0.03768 -0.02826,0.0565 -0.05652,0.0565 H 5.41422 c -0.03768,0 -0.05651,-0.01883 -0.05651,-0.0565 V 5.94808 c 0,-0.02826 0.01883,-0.05651 0.05651,-0.05651 h 1.45052 c 0.07535,0 0.15071,-0.06593 0.15071,-0.1507 V 5.59016 c 0,-0.07535 -0.07536,-0.1507 -0.15071,-0.1507 H 5.35771 c -0.25432,0 -0.45212,0.20722 -0.45212,0.45211 v 3.31548 c 0,0.25432 0.1978,0.45211 0.45212,0.45211 h 3.31548 c 0.24489,0 0.45211,-0.19779 0.45211,-0.45211 V 7.70001 c 0,-0.07535 -0.07535,-0.1507 -0.1507,-0.1507 z"
       fill="#ffffff"
       id="path4" />
  </g>
</svg>

<svg width="15" height="11" viewBox="0 0 15 11" fill="none" xmlns="http://www.w3.org/2000/svg">
<path d="M1.48678 0.175667C0.890938 0.175667 0.389678 0.655989 0.411028 1.25142L0.682808 9.87445C0.704008 10.4699 1.16277 10.9497 1.75853 10.9497H3.85041H12.4386C13.0344 10.9497 13.4406 10.4658 13.5138 9.87445L14.2233 4.14626C14.0261 3.91931 13.7151 3.78488 13.2773 3.75372H2.50238C2.35398 3.75372 2.21174 3.81382 2.07854 3.91719C1.94538 4.02062 1.8215 4.16755 1.70987 4.34004C1.48662 4.68502 1.31244 6.14225 1.21344 6.55727V2.85386C1.21644 2.72715 1.29734 2.59127 1.40478 2.48716C1.5122 2.38306 1.64677 2.31077 1.7571 2.31077H13.3439C13.03 1.79302 12.6702 1.43278 12.0376 1.43278H5.1915L5.1975 1.25142C5.2025 1.10256 5.175 0.960794 5.1219 0.832054C5.0687 0.703314 4.98943 0.587414 4.89087 0.490204C4.79237 0.393004 4.67447 0.314449 4.54405 0.260139C4.41364 0.205839 4.27066 0.175644 4.1217 0.175644L1.48678 0.175667Z" fill="#007FFF"/>
<path d="M9.58683 4.83664L8.05153 4.84604C7.97618 4.84604 7.91967 4.90255 7.91967 4.97791V5.28873C7.91967 5.36408 7.97618 5.43002 8.05153 5.43002L8.74854 5.40176L8.76738 5.42059L6.13948 8.04849C6.12064 8.06733 6.1018 8.09558 6.1018 8.12384C6.1018 8.16152 6.12064 8.18977 6.13948 8.20861L6.35612 8.42525C6.37496 8.44409 6.40321 8.46293 6.44089 8.46293C6.46915 8.46293 6.4974 8.44409 6.51624 8.42525L9.14414 5.79735L9.16297 5.81619L9.13472 6.5132C9.13472 6.58855 9.20065 6.65448 9.276 6.65448V6.64508H9.58683C9.66218 6.64508 9.7187 6.58857 9.7187 6.51321L9.72812 4.97792C9.72812 4.90257 9.66218 4.83664 9.58683 4.83664H9.58683ZM8.9746 7.54931H8.82389C8.73912 7.54931 8.67319 7.62466 8.67319 7.70001V9.15054C8.67319 9.18822 8.64493 9.20704 8.61667 9.20704H5.41422C5.37654 9.20704 5.35771 9.18821 5.35771 9.15054V5.94808C5.35771 5.91982 5.37654 5.89157 5.41422 5.89157H6.86474C6.94009 5.89157 7.01545 5.82564 7.01545 5.74087V5.59016C7.01545 5.51481 6.94009 5.43946 6.86474 5.43946H5.35771C5.10339 5.43946 4.90559 5.64668 4.90559 5.89157V9.20705C4.90559 9.46137 5.10339 9.65916 5.35771 9.65916H8.67319C8.91808 9.65916 9.1253 9.46137 9.1253 9.20705V7.70001C9.1253 7.62466 9.04995 7.54931 8.9746 7.54931V7.54931Z" fill="white"/>
</svg>
